X:6826
T:F\:ur ...Else
R:schot 32
C:Simon Wascher
Z:Simon Wascher
S:Phil Headford <flos@madasafish.com> abcusers 2011-3-21
M:2/4
L:1/16
Q:1/4=110
K:G
|: B2GB d2d2 | B2GB d2d2 | EcBc F2F2 | GB_B=BG4 |\ 
   B2GB d2d2 | B2GB d2d2 | EcBc F2F2 | G2B2G4 :| 
|: B2GB d^cd=c | B2GBD4 | FEFG AGAF | G2DGB4 |\ 
   B2GB d^cd=c | B2GBD4 | FEFG AGAF | G2B2G4 :| 
